public/mascots/nj/hawk-256x256.svg

<svg xmlns="http://www.w3.org/2000/svg" width="256" height="256" viewBox="0 0 256 256"><path fill="none" stroke="#00f" stroke-linecap="round" stroke-linejoin="round" stroke-width="2" d="M80 208q-16-48 16-80-16-16 0-48t64-32 64 32l-32 32q32 32 0 80-32 32-112 16"/><path fill="none" stroke="#00f" stroke-linecap="round" stroke-width="2.5" d="M96 128q32-16 80 0"/><path fill="none" stroke="#00f" stroke-linecap="round" stroke-width="2" d="m88 144 24-8M84 160l24-8M92 112l24 8"/><path fill="none" stroke="#00f" stroke-linecap="round" stroke-width="1.5" d="m104 136 16-4M100 152l24-8M112 124l24 4"/><path fill="none" stroke="#00f" stroke-linecap="round" stroke-width="1.2" d="m108 140 24-4"/><path fill="none" stroke="#00f" stroke-linecap="round" d="m116 116 12 4M120 148l24-8"/><path fill="none" stroke="#00f" stroke-linecap="round" stroke-width="2.5" d="M96 80q16-32 64-32 32 0 48 24"/><path fill="none" stroke="#00f" stroke-linecap="round" stroke-width="2" d="M112 56q32-16 64 0"/><path fill="none" stroke="#00f" stroke-linecap="round" stroke-width="1.5" d="M120 52q24-8 48 0"/><path fill="none" stroke="#00f" stroke-linecap="round" d="M128 60q16-4 32 0"/><path fill="none" stroke="#00f" stroke-linecap="round" d="M104 68q24-12 48 4"/><path fill="none" stroke="#00f" stroke-linecap="round" stroke-linejoin="round" stroke-width="2.5" d="m208 72 24 8-24 16q8-8 4-16 4-8-4-8"/><path fill="none" stroke="#00f" stroke-linecap="round" stroke-width="1.5" d="m216 76 12 4-12 4"/><path fill="none" stroke="#00f" d="M212 80h8"/><path fill="none" stroke="#00f" stroke-linecap="round" stroke-width=".8" d="m214 78 8 2-8 2"/><ellipse cx="214" cy="79" fill="#00f" rx="2" ry="1.5"/><ellipse cx="160" cy="72" fill="none" stroke="#00f" stroke-width="2.5" rx="16" ry="12"/><ellipse cx="164" cy="72" fill="#00f" rx="6" ry="5"/><circle cx="166" cy="70" r="2" fill="#fff"/><circle cx="162" cy="74" r="1" fill="#fff" opacity=".7"/><path fill="none" stroke="#00f" stroke-linecap="round" stroke-width="4" d="m136 56 32 12"/><path fill="none" stroke="#00f" stroke-linecap="round" stroke-width="2" d="m144 60 20 6"/><path fill="none" stroke="#00f" stroke-linecap="round" stroke-width="1.5" d="m140 58 20 6M104 84q16 12 8 28"/><path fill="none" stroke="#00f" stroke-linecap="round" d="M100 92q12 8 8 16"/><path fill="none" stroke="#00f" stroke-linecap="round" stroke-width="2.5" d="m64 176-16 32m32-16-12 24"/><path fill="none" stroke="#00f" stroke-linecap="round" stroke-width="2" d="m72 184-12 28"/><path fill="none" stroke="#00f" stroke-linecap="round" stroke-width="1.5" d="m56 188-10 20"/><path fill="none" stroke="#00f" stroke-linecap="round" stroke-width="2" d="M112 144q16 32 0 64"/><path fill="none" stroke="#00f" stroke-linecap="round" stroke-width="1.5" d="M128 136q16 24 8 64"/><path fill="none" stroke="#00f" stroke-linecap="round" stroke-width="1.2" d="M144 132q12 20 8 60"/><path fill="none" stroke="#00f" stroke-linecap="round" d="M160 128q8 16 6 56"/><path fill="none" stroke="#00f" stroke-linecap="round" stroke-width="1.5" d="M104 168q16 12 8 32"/><path fill="none" stroke="#00f" stroke-linecap="round" stroke-width="1.2" d="M116 160q12 12 8 36"/><path fill="none" stroke="#00f" stroke-linecap="round" d="M108 176q12 8 8 28M176 136q8 24-4 52"/><path fill="none" stroke="#00f" stroke-linecap="round" stroke-width="2.5" d="m104 200-8 24m40-16 8 24"/><path fill="none" stroke="#00f" stroke-linecap="round" stroke-width="1.5" d="m92 212 8 12m40-4 8 8"/><path fill="none" stroke="#00f" stroke-linecap="round" d="m100 216 4 6m28-4 4 8"/></svg>

<svg xmlns="http://www.w3.org/2000/svg" width="256" height="256" viewBox="0 0 256 256">
  <!-- NJ Style Hawk - 256x256 -->
  <!-- Sleek outline style, precision lines, #0000FF stroke -->
  
  <!-- Main body outline - streamlined hawk silhouette -->
  <path d="M80 208 Q64 160 96 128 Q80 112 96 80 Q112 48 160 48 Q208 48 224 80 L192 112 Q224 144 192 192 Q160 224 80 208" 
        stroke="#0000FF" stroke-width="2" fill="none" stroke-linecap="round" stroke-linejoin="round"/>
  
  <!-- Wing structure - layered precision lines -->
  <path d="M96 128 Q128 112 176 128" stroke="#0000FF" stroke-width="2.5" fill="none" stroke-linecap="round"/>
  <path d="M88 144 L112 136" stroke="#0000FF" stroke-width="2" fill="none" stroke-linecap="round"/>
  <path d="M84 160 L108 152" stroke="#0000FF" stroke-width="2" fill="none" stroke-linecap="round"/>
  <path d="M92 112 L116 120" stroke="#0000FF" stroke-width="2" fill="none" stroke-linecap="round"/>
  
  <!-- Secondary wing detail lines -->
  <path d="M104 136 L120 132" stroke="#0000FF" stroke-width="1.5" fill="none" stroke-linecap="round"/>
  <path d="M100 152 L124 144" stroke="#0000FF" stroke-width="1.5" fill="none" stroke-linecap="round"/>
  <path d="M112 124 L136 128" stroke="#0000FF" stroke-width="1.5" fill="none" stroke-linecap="round"/>
  <path d="M108 140 L132 136" stroke="#0000FF" stroke-width="1.2" fill="none" stroke-linecap="round"/>
  
  <!-- Wing feather layers -->
  <path d="M116 116 L128 120" stroke="#0000FF" stroke-width="1" fill="none" stroke-linecap="round"/>
  <path d="M120 148 L144 140" stroke="#0000FF" stroke-width="1" fill="none" stroke-linecap="round"/>
  
  <!-- Head with alert posture -->
  <path d="M96 80 Q112 48 160 48 Q192 48 208 72" stroke="#0000FF" stroke-width="2.5" fill="none" stroke-linecap="round"/>
  
  <!-- Crown feather details -->
  <path d="M112 56 Q144 40 176 56" stroke="#0000FF" stroke-width="2" fill="none" stroke-linecap="round"/>
  <path d="M120 52 Q144 44 168 52" stroke="#0000FF" stroke-width="1.5" fill="none" stroke-linecap="round"/>
  <path d="M128 60 Q144 56 160 60" stroke="#0000FF" stroke-width="1" fill="none" stroke-linecap="round"/>
  
  <!-- Head contour lines -->
  <path d="M104 68 Q128 56 152 72" stroke="#0000FF" stroke-width="1" fill="none" stroke-linecap="round"/>
  
  <!-- Sharp hooked beak -->
  <path d="M208 72 L232 80 L208 96 Q216 88 212 80 Q216 72 208 72" stroke="#0000FF" stroke-width="2.5" fill="none" stroke-linecap="round" stroke-linejoin="round"/>
  
  <!-- Beak detail lines -->
  <path d="M216 76 L228 80 L216 84" stroke="#0000FF" stroke-width="1.5" fill="none" stroke-linecap="round"/>
  <path d="M212 80 L220 80" stroke="#0000FF" stroke-width="1" fill="none"/>
  <path d="M214 78 L222 80 L214 82" stroke="#0000FF" stroke-width="0.8" fill="none" stroke-linecap="round"/>
  
  <!-- Nostril indication -->
  <ellipse cx="214" cy="79" rx="2" ry="1.5" fill="#0000FF"/>
  
  <!-- Alert eye - intense focus -->
  <ellipse cx="160" cy="72" rx="16" ry="12" stroke="#0000FF" stroke-width="2.5" fill="none"/>
  <ellipse cx="164" cy="72" rx="6" ry="5" fill="#0000FF"/>
  
  <!-- Eye highlight -->
  <circle cx="166" cy="70" r="2" fill="#FFFFFF"/>
  <circle cx="162" cy="74" r="1" fill="#FFFFFF" opacity="0.7"/>
  
  <!-- Sharp angled brow - intense -->
  <path d="M136 56 L168 68" stroke="#0000FF" stroke-width="4" fill="none" stroke-linecap="round"/>
  <path d="M144 60 L164 66" stroke="#0000FF" stroke-width="2" fill="none" stroke-linecap="round"/>
  <path d="M140 58 L160 64" stroke="#0000FF" stroke-width="1.5" fill="none" stroke-linecap="round"/>
  
  <!-- Neck contour -->
  <path d="M104 84 Q120 96 112 112" stroke="#0000FF" stroke-width="1.5" fill="none" stroke-linecap="round"/>
  <path d="M100 92 Q112 100 108 108" stroke="#0000FF" stroke-width="1" fill="none" stroke-linecap="round"/>
  
  <!-- Tail feathers - angular precision -->
  <path d="M64 176 L48 208 M80 192 L68 216" stroke="#0000FF" stroke-width="2.5" fill="none" stroke-linecap="round"/>
  <path d="M72 184 L60 212" stroke="#0000FF" stroke-width="2" fill="none" stroke-linecap="round"/>
  <path d="M56 188 L46 208" stroke="#0000FF" stroke-width="1.5" fill="none" stroke-linecap="round"/>
  
  <!-- Body contour lines -->
  <path d="M112 144 Q128 176 112 208" stroke="#0000FF" stroke-width="2" fill="none" stroke-linecap="round"/>
  <path d="M128 136 Q144 160 136 200" stroke="#0000FF" stroke-width="1.5" fill="none" stroke-linecap="round"/>
  <path d="M144 132 Q156 152 152 192" stroke="#0000FF" stroke-width="1.2" fill="none" stroke-linecap="round"/>
  <path d="M160 128 Q168 144 166 184" stroke="#0000FF" stroke-width="1" fill="none" stroke-linecap="round"/>
  
  <!-- Chest feather lines -->
  <path d="M104 168 Q120 180 112 200" stroke="#0000FF" stroke-width="1.5" fill="none" stroke-linecap="round"/>
  <path d="M116 160 Q128 172 124 196" stroke="#0000FF" stroke-width="1.2" fill="none" stroke-linecap="round"/>
  <path d="M108 176 Q120 184 116 204" stroke="#0000FF" stroke-width="1" fill="none" stroke-linecap="round"/>
  
  <!-- Back contour -->
  <path d="M176 136 Q184 160 172 188" stroke="#0000FF" stroke-width="1" fill="none" stroke-linecap="round"/>
  
  <!-- Leg/talon outline -->
  <path d="M104 200 L96 224 M136 208 L144 232" stroke="#0000FF" stroke-width="2.5" fill="none" stroke-linecap="round"/>
  <path d="M92 212 L100 224 M140 220 L148 228" stroke="#0000FF" stroke-width="1.5" fill="none" stroke-linecap="round"/>
  <path d="M100 216 L104 222 M132 218 L136 226" stroke="#0000FF" stroke-width="1" fill="none" stroke-linecap="round"/>
</svg>
